X:1
T:Sechs Lieder, Op.25
T:Frühlings-Glaube
T:1. Frühlings-Glaube
T:Josephine Lang
T:Sechs Lieder, Op.25
T:Ludwig Uhland
T:OpenScore (CC0)
T:OpenScore (CC0)
T:OpenScore (CC0)
T:OpenScore (CC0)
T:OpenScore (CC0)
T:OpenScore (CC0)
T:OpenScore (CC0)
T:OpenScore (CC0)
T:OpenScore (CC0)
C:Josephine Lang
Z:Ludwig Uhland
Z:OpenScore (CC0)
%%score 1 { ( 2 6 ) | ( 3 4 5 ) }
L:1/8
Q:1/4=110
M:2/4
K:C
V:1 treble nm="Voice"
V:2 treble nm="Pianoforte"
V:6 treble 
V:3 bass 
V:4 bass 
V:5 bass 
V:1
"^Lebhaft und feurig." z4 | z4 | z4 | z4 | z4 | z4 | z4 | z4 | z4 | z4 | z4 | z4 | z4 | z4 | z4 | %15
w: |||||||||||||||
 z4 | z4 | z4 | z4 | z4 | z4[Q:1/4=85] | z2 !fermata!z[Q:1/4=110] G |!p! (G3 c | Bc d) z | F3 G | %25
w: ||||||Die|lin- den|Lüf- * te|sind er-|
 A3 A | d2 ^c d | e3 d | c2 ^F2 | G2 z3/2 G/ | G2 c c |!<(! (_Bc)!<)!!>(! (dc)!>)! | _B4 | A2 z A | %34
w: wacht! sie|säu- seln und|we- ben|Tag und|Nacht, sie|schaf- fen an|al- * len *|En-|den, sie|
 A2!<(! G F!<)! |!f!!>(! (c2 =B) A!>)! | G4 | D z z2 |!p! D2 E3/2 E/ | F2 z2 | F2 ^F3/2 F/ | %41
w: schaf- fen  an|al- * len|En-|den!|O fri- scher|Duft!|o neu- er|
 G2 z2 |!<(! G4!<)! |!>(! c3!>)! d | (c4 | B2) z2 | D2 E3/2 E/ | G2 F2 |!<(! F2 ^F2!<)! | %49
w: Klang!|o|neu- er|Klang!|_|Nun, ar- mes|Her- ze,|sei nicht|
!>(! (A2 G2)!>)! | (G4 |[Q:1/4=85]"^riten." d3) c |!<(! =f4-!<)! |!f!!>(! !fermata!f4!>)! | %54
w: bang, _|sei|_ nicht|bang!|_|
[Q:1/4=110]"^a tempo"!f! !^!e4 | B2 c2 | A4 | G2 z2 | (!^!e4 | B2) c2 |!<(! (A4!<)! | %61
w: Nun|muss sich|Al-|les,|Al-|* les|wen-|
[Q:1/4=85]"^riten."!>(!{Ac} _B2) A2!>)! |[Q:1/4=110]"^a tempo"!p! A4 | c3 B | d2 c2 |!f! g3 f | %66
w: * den,|nun|muss sich|Al- les,|Al- les|
 (e4 | d3 g) | g z z2 | z4 | (G2 ^G2) | !^!A2 !^!B2 | c2 ^c2 |!<(!"^cresc." d2 a2!<)! | %74
w: wen-||den!||nun _|muss sich|Al- les,|Al- les|
!ff!!>(! (a4 | B3!>)!!p! c) | c2 z2 | z4 | z4 | z4 | z4 | z4 | z4 | z4 | z4 | z4 | z4 | z4 | z4 | %89
w: wen-||den!|||||||||||||
 z4 | z4 | z4 | z4 | z4 | z4 | z4 | z4 | z4 | z2 !fermata!z G | G2 z c | B2 c d | F3 G | A2 z A | %103
w: |||||||||Die|Welt wird|schö- ner  mit|je- dem|Tag, man|
 d2 (^cd) | e z d2 | c2 ^F2 | G2 z G | G2 c2 |!<(! (_Bc)!<)!!>(! (dc)!>)! | _B4 | A2 z A | %111
w: weiss nicht *|was noch|wer- den|mag! Das|Blüh- en|will * nicht *|en-|den, das|
!<(! (A2 G) F!<)! |!>(! c2 (BA)!>)! | (G4 | D2) z!p! D | D2 E2 | F3 F | F2 ^F2 | G2 z G | %119
w: Blüh- * en|will nicht *|en-|den! Es|blüht das|fern- ste|tief- ste|Thal, das|
!<(! (G4!<)! |!>(! c3) d | (c4!>)! | B4) |!p! D2 E3/2 E/ | G2 z F |!<(! F2 ^F2!<)! | %126
w: tief-|* ste|Thal!|_|nun, ar- mes|Herz! ver-|giss der|
!>(! (A2!>)! G) z/!<(! G/ | (G4!<)! |"^cresc."!ff!!>(! d3)!>)! =c | !^!=f4- |"^dim." !fermata!f4 | %131
w: Qual, _ ver-|giss|_ der|Qual!|_|
!f!!>(! !^!e4 | B2 z c | A4 | G2!>)!!p! z2 |!f! (e4 | B2) c2 |"^dol."!<(! (A4!<)! | %138
w: nun,|muss sich|Al-|les,|Al-|* les|wen-|
[Q:1/4=80]"^rit."!>(!{Ac} (_B2) A2)!>)! |!pp![Q:1/4=110]"^a tempo" A4 |!p! !>!c2!pp! B2 | %141
w: * den!|nun|muss sich|
!>(! d2 c!>)!!<(! z!<)! |!f!!>(! g3!>)! f |!<(! (e4 | d3!<)! g) |!>(! g2!>)! z2 | z4 | %147
w: Al- les,|Al- les|wen-||den!||
!p! ((!^!G2 !^!^G2) | !^!A2"^cresc." !^!B2 | !^!c2 !^!^c2 | !^!d2 !^!a2) |!ff! (a4 | B3 c | %153
w: nun _|muss sich|Al- les,|Al- les|wen-||
 c2) z2 | z4 | z4 | z4 | z4 | z4 | z4 | z4 | z4 |] %162
w: den.|||||||||
V:2
!f!!>(! (G2!>)! A>G | G2- [GBdg]) z |!<(! G2!<)!!>(! A>!>)!G | G2- [GBdg] z | %4
!f!!<(! [B,DGB]2 [CGc]>[CGc] | [DGd]2!<)! [EGe]2 | !^![FGBf]4- | !^![FGBf]4 | x4 | x4 | %10
 f'2 z ([fg] | d'2) z ([fg] | b2) z ([Bf] | g2) z!pp!!<(! ([Gd] | f3) ([FG]!<)! | d3) ([FG] | %16
!>(! B3) ([DF] | G3)!>)!!<(! [DF]!<)! |"_cresc." z [C-F] [CG]2- | [CG][C-F] [CG]2- | %20
 [CG]"_dim."[DF]-"^riten." [DFG]2- |!pp! [DFG][DF]- !fermata![DFG]2 | z [Ge][cg] z | %23
!pp! z [Gd][Bg] z | z [Af][da] z | z [da][fd'] z | z [Af][da] z | z [Gf][dg] z | z [Ge] z [c_e^f] | %29
 z [Gd][Bg][Gd] | z [Ge][cg] z | z [cg][ec'] z | z [_Bg][d_b] z | z [Ag][ea] z | z [Af][da] z | %35
"_cresc." z [c^f][dc'] z | z [Gd][cg] z | z [Gd][Bg]!mf! z |!p! [B,D]2 [CE]>[CE] | [B,F]2 z2 | %40
 [B,F]2 [A,_E^F]>[A,EF] | [G,DG] z z2 | [G,DG]4 | [Cc]3 [Dd] | (([CD-=F-=c]4 | [B,B]2)) x2 | %46
 [B,D]2 [CE]>[CE] | G2 =F2 | [B,F]2 [A,_E^F]2 | A2 G2 | [G,DG]4 | d3 c | [=F-=c=f-]4 | %53
 !fermata![Ff]4 |"^a tempo" [Ee]4 | [B,B]2 [Cc]2 | [A,A]4 | [G,G]2 z2 | [Ee]4 | [B,B]2 [Cc]2 | %60
 [A,A]4 |"^riten." [_B,_B]2 [A,A]2 | [A,A]4 | (([Cc]2 [B,B]2)) | [Dd]2 [Cc]2 | [Gg]3 [Ff] | [Ee]4 | %67
 [Dd]4 | [Gg]4 | [G,G]4 | [G,G]!<(![CE][^G,^G][B,E] | [A,A][CE][B,B][DE] | [Cc][EA][^C^c][EA] | %73
 [Dd][FA][Aa][df]!<)! | [Aa]4 | [B,B]4 | [CEc]2 z2 |!f! G2 A>G | G2- [GBdg] z | G2 A>G | %80
 G2- [GBdg] z | [B,DGB]2 [CGc]>[CGc] | [DGd]2 [EGe]2 | [FGBf]4- | [FGBf]4 | x4 | x4 | f'2 z ([fg] | %88
 d'2) z ([fg] | b2) z ([Bf] | g2) z ([Gd] | f2) z ([FG] | d2) z ([FG] | B2) z ([DF] | G3) [DF] | %95
 z [C-F] [CG]2- | [CG][C-F] [CG]2- | [CG][DF]- [DFG]2- | [DFG][DF]- !fermata![DFG]2 | %99
 z [Ge][cg] z | z [Gd][Bg] z | z [Af][da] z | z [da][fd'] z | z [Af][da] z | z [Gf][dg] z | %105
 z [Ge]z[c_e^f] | z [Gd][Bg][Gd] | z [Ge][cg][Ge] |!<(! z [cg]!<)!!>(![ec'] z!>)! | %109
!p! z [_Bg][d_b] z | z [Ag][ea] z | z [Af][da] z | z [c^f][dc'] z | z [Gd][cg] z | z [Gd][Bg] z | %115
 [B,D]2 [CE]2 | [B,F]2 z2 | [B,F]2 [A,_E^F]2 | [G,DG]2 z2 | [G,DG]4 | [Cc]3 [Dd] | %121
 (((!arpeggio![CD-=Fc]4 | [B,DGB]4))) | [B,D]2 [CE]>[CE] | [B,G] z z [B,=F] | [B,F]2 [A,_E^F]2 | %126
 A2 G2 | [G,DG]4 | d3 =c | [=F-=c=f-]4 | !fermata![Ff]4 | [Ee]4 | [B,B]2 [Cc]2 | [A,A]4 | [G,G]4 | %135
 [Ee]4 | [B,B]2 [Cc]2 | [A,A]4 |"_riten." [_B,_B]2 [A,A]2 | [A,A]4 | [Cc]2 [B,B]2 | [Dd]2 [Cc]2 | %142
 [Gg]3 [Ff] | [Ee]4 | [Dd]4 | [Gg]4 |!p! [G,G]4 | !^![G,G]!p![CE]!^![^G,^G][B,E] | %148
!<(! [A,A][CE][B,B][DE] | [Cc][EA][^C^c]!<)![EA] | [Dd][FA][Aa][df] | [Aa]4 | [B,B]4 | [CEc]2 z2 | %154
!f! G2 A>G | G2- [GBdg] z |!<(! G2 A>G!<)! |!>(! G2-!>)! [GBdg] z | [B,DGB]2 [CGc]>[CGc] | %159
 !^![DGd]2 !^![EGe]2 |!f! !^![FGBf]4 |!f! !^![EGce]4 |] %162
V:3
 G,2 A,>G, | x2 x2 | G,2 A,>G, | x2 x2 | F,G,E,G, | B,,G,C,G, |!f! z (G,,,D,,G,, | %7
"^legato" D,G,B,D |[I:staff -1] FGBd |"^dim." fgbd') |[I:staff +1][K:treble] z!pp! (Bd) z | %11
 z (G d2-) | d(D G2-) | GB, D2 |[K:bass] z G, B,2- | B,G, D2- | DG, B,2 | z G,B,G, | A,3 G, | %19
 A,3 G, | B,3 G, | !fermata!G,3 G, |"^leggiero e" C,2 [G,CE]2 | C,2 [F,G,D]2 | C,2 [F,A,D]2 | %25
 C,2 [F,A,D]2 | C,2 [F,A,D]2 | C,2 [F,G,D]2 | [C,C] z [A,,A,] z | [G,,G,]2 [G,D]2 | %30
 [C,C]2 [G,CE]2 | [C,C]2[K:treble] [CG]2 |[K:bass] D,2 [G,_B,D]2 | ^C,2 [G,A,E]2 | D,2 [F,A,D]2 | %35
 [D,,D,]2 [^F,A,D]2 | [G,,G,]2 [G,CD]2 | [G,,G,]2 [G,D]2 | F,G,E,G, | D,G,^F,G, | D,G,C,D, | %41
 B,,D,^C,D, | B,,D,^C,D, | A,,D,^C,D, | z!<(! G,,,D,,G,,!<)! |!>(! D,G,B,D!>)! |!p! F,G,E,G, | %47
 D,G,^F,G, | D,G,C,D, | B,,D,^C,D, | B,,D,^C,D, |"^riten." A,,D,^C,D, | z!f! G,,,D,,G,, | %53
 D,G,D!fermata!F |!ff! [C,,C,]2 [G,C]2 | [D,,D,]2 [E,,E,]2 | [F,,F,]2 [D,,D,]2 | %57
 [B,,,B,,]2 [G,,,G,,]2 | [C,,C,]2 [G,C]2 | [D,,D,]2 [E,,E,]2 | F,,2 [D,F,]2 | %61
!mp!"^dim." [^C,,^C,]2 [C,E,]2 | [D,,D,]2 [D,F,]2 | [F,,F,]2 [F,G,]2 | [E,,E,]2 [E,G,]2 | %65
!p!"^cresc." [F,,F,]2 [F,A,D]2 | [G,,G,]2 [G,C]2 | [F,,F,]2 [F,G,]2 | [E,,E,]2 [E,G,C]2 | %69
 [B,,,B,,]2!f! [B,,D,]2 |!pp! [C,,C,]2 [D,,D,]2 | [C,,C,]2 [^G,,,^G,,]2 | %72
 [A,,,A,,]2"^cresc." [=G,,,=G,,]2 | [F,,,F,,]2 [D,,,D,,]2 |!ff! [G,,,G,,] z !^![G,DF]2- | %75
 [G,DF] z [G,,G,]2 |!f! C,,G,,E,G,, | [G,_B,^C]2 A,>G, | x2 x2 | [G,_B,^C]2 A,>G, | x2 x2 | %81
 F,G,E,G, | B,,G,C,G, | z (G,,,D,,G,, |"^legato" D,G,B,D |!>(![I:staff -1] FGBd | fgbd')!>)! | %87
[I:staff +1][K:treble] z!pp!!ped! (Bd) z | z (G d2-) | d(D G2-) | GB, D2 |[K:bass] z G, B,2- | %92
 B,G, D2- | DG, B,2- | B,G,B,G, | A,3!ped-up! G, | A,3 G, | B,3 G, | !fermata!B,3 G, | %99
"^leggiero" C,2 [G,CE]2 | C,2 [F,G,D]2 | C,2 [F,A,D]2 | C,2 [F,A,D]2 | C,2 [F,A,D]2 | %104
 C,2 [F,G,D]2 | [C,C]2 [A,,A,]2 | [G,,G,]2 [G,D]2 | [C,C]2 [G,CE]2 |!p! [C,C]2[K:treble] [CG]2 | %109
[K:bass] D,2 [G,_B,D]2 | ^C,2 [G,A,E]2 |!p!!<(! D,2 [F,A,D]2!<)! |!>(! [D,,D,]2 [^F,A,D]2!>)! | %113
 [G,,G,]2 [G,CD]2 | [G,,G,]2 [G,D]2 |!p! F,G,E,G, | D,G,^F,G, | D,G,C,D, | B,,D,^C,D, | %119
!<(! B,,D,^C,D,!<)! |!f! A,,D,^C,D, |!>(! z G,,,D,,G,,!>)! | D,G,B,D |!pp! =F,G,E,G, | D,G,^F,G, | %125
!<(! D,G,C,D,!<)! |!f!!>(! B,,D,^C,D,!>)! | B,,D,^C,D, |"^cresc." A,,D,^C,D, | z G,,,D,,G,, | %130
 D,G,DF |!ff! [C,,C,]2 [G,C]2 | [D,,D,]2 [E,,E,]2 | [F,,F,]2 [D,,D,]2 | [B,,,B,,]2 [G,,,G,,]2 | %135
 [C,,C,]2 [G,C]2 | [D,,D,]2 [E,,E,]2 | F,,2 [C,F,]2 |"^dol."!>(! [^C,,^C,]2 [D,,D,]2 | %139
 [D,,D,]2!>)! [D,F,]2 | [F,,F,]2 [F,G,]2 |!<(! [E,,E,]2 [E,G,]2!<)! |!f! [F,,F,]2 [F,A,D]2 | %143
!mf!!<(! [G,,G,]2 [G,C]2 | [F,,F,]2 [F,G,]2!<)! |!f!!>(! [E,,E,]2 [E,G,C]2!>)! | %146
 [B,,,B,,]2 [B,,D,]2 | [C,,C,]2 [D,,D,]2 | [C,,C,]2 [^G,,,^G,,]2 | [A,,,A,,]2 [=G,,,=G,,]2 | %150
 [F,,,F,,]2!f! [D,,,D,,]2 |!ff! [G,,,G,,] z [G,DF]2 | z2 [G,,G,]2 | C,,G,,E,G,, | %154
 [G,_B,^C]2 A,>G, | x2 x2 | [G,_B,^C]2 A,>G, | x2 x2 |!f! F,G,E,G, | B,,G,C,G, | [G,,D,G,]4 | %161
 [C,,G,,C,]4 |] %162
V:4
 [^C,E,]G,,[C,E,]G,, | [D,F,]G,,[D,F,]G,, | [^C,E,]G,,[C,E,]G,, | [D,F,]G,,[D,F,]G,, | x4 | x4 | %6
 x4 | x4 | x4 | x4 |[K:treble] x4 | x4 | x4 | x4 |[K:bass] x4 | x4 | x4 | x4 | x4 | x4 | x4 | x4 | %22
 x4 | x4 | x4 | x4 | x4 | x4 | x4 | x4 | x4 | x2[K:treble] x2 |[K:bass] x4 | x4 | x4 | x4 | x4 | %37
 x4 | x4 | x4 | x4 | x4 | x4 | x4 | x4 | x4 | x4 | x4 | x4 | x4 | x4 | x4 | x4 | x4 | x4 | x4 | %56
 x4 | x4 | x4 | x4 | x4 | x4 | x4 | x4 | x4 | x4 | x4 | x4 | x4 | x4 | x4 | x4 | x4 | x4 | x4 | %75
 x4 | x4 | [^C,E,]G,,[C,E,]G,, | [D,F,]G,,[D,F,]G,, | [^C,E,]G,,[C,E,]G,, | [D,F,]G,,[D,F,]G,, | %81
 x4 | x4 | x4 | x4 | x4 | x4 |[K:treble] x4 | x4 | x4 | x4 |[K:bass] x4 | x4 | x4 | x4 | x4 | x4 | %97
 x4 | x4 | x4 | x4 | x4 | x4 | x4 | x4 | x4 | x4 | x4 | x2[K:treble] x2 |[K:bass] x4 | x4 | x4 | %112
 x4 | x4 | x4 | x4 | x4 | x4 | x4 | x4 | x4 | x4 | x4 | x4 | x4 | x4 | x4 | x4 | x4 | x4 | x4 | %131
 x4 | x4 | x4 | x4 | x4 | x4 | x4 | x4 | x4 | x4 | x4 | x4 | x4 | x4 | x4 | x4 | x4 | x4 | x4 | %150
 x4 | x4 | x4 | x4 | [^C,E,]G,,[C,E,]G,, | [D,F,]G,,[D,F,]G,, | [^C,E,]G,,[C,E,]G,, | %157
 [D,F,]G,,[D,F,]G,, | x4 | x4 | x4 | x4 |] %162
V:5
 ([_B,^C]4 | [G,=B,D]2) x2 | ([_B,^C]4 | [G,=B,D]2) x2 | x4 | x4 | x4 | x4 | x4 | x4 | %10
[K:treble] x4 | x4 | x4 | x4 |[K:bass] x4 | x4 | x4 | x4 | x4 | x4 | x4 | x4 | x4 | x4 | x4 | x4 | %26
 x4 | x4 | x4 | x4 | x4 | x2[K:treble] x2 |[K:bass] x4 | x4 | x4 | x4 | x4 | x4 | x4 | x4 | x4 | %41
 x4 | x4 | x4 | x4 | x4 | x4 | x4 | x4 | x4 | x4 | x4 | x4 | x4 | x4 | x4 | x4 | x4 | x4 | x4 | %60
 x4 | x4 | x4 | x4 | x4 | x4 | x4 | x4 | x4 | x4 | x4 | x4 | x4 | x4 | x4 | x4 | x4 | x4 | %78
 [G,=B,D]2 x2 | x4 | [G,=B,D]2 x2 | x4 | x4 | x4 | x4 | x4 | x4 |[K:treble] x4 | x4 | x4 | x4 | %91
[K:bass] x4 | x4 | x4 | x4 | x4 | x4 | x4 | x4 | x4 | x4 | x4 | x4 | x4 | x4 | x4 | x4 | x4 | %108
 x2[K:treble] x2 |[K:bass] x4 | x4 | x4 | x4 | x4 | x4 | x4 | x4 | x4 | x4 | x4 | x4 | x4 | x4 | %123
 x4 | x4 | x4 | x4 | x4 | x4 | x4 | x4 | x4 | x4 | x4 | x4 | x4 | x4 | x4 | x4 | x4 | x4 | x4 | %142
 x4 | x4 | x4 | x4 | x4 | x4 | x4 | x4 | x4 | x4 | x4 | x4 | x4 | [G,=B,D]2 x2 | x4 | %157
 [G,=B,D]2 x2 | x4 | x4 | x4 | x4 |] %162
V:6
 x4 | x4 | x4 | x4 | x4 | x4 | x4 | x4 | x4 | x4 | x4 | x4 | x4 | x4 | x4 | x4 | x4 | x4 | x4 | %19
 x4 | x4 | x4 | x4 | x4 | x4 | x4 | x4 | x4 | x4 | x4 | x4 | x4 | x4 | x4 | x4 | x4 | x4 | x4 | %38
 x4 | x4 | x4 | x4 | x4 | [D^F]4 | x4 | [DF]4 | x4 | B,4 | x4 | [G,D]4 | x4 | [C^F]4 | x4 | B2 G2 | %54
 z [Gc]2 [Gc] | z [FG]2 [EG] | z!f!!>(! [CF]2 [DF] | z [DF]2!>)! [B,F] | z [Gc]2 [Gc] | %59
 z [FG]2 [EG] | z [CF]2 [CF] | z [EG]2 [EG] | z"^a tempo" [DF]2 [DF] | z [DG]2 [DG] | %64
 z [EG]2 [EG] | z [Ad]z[Ad] | z [Gc]2 [Gc] | z [GB]2 [GB] | z [ce]2 [ce] | z [DF]2 [DF] | x4 | x4 | %72
 x4 | x4 | z [Bd]2 [Bd] | z [DF]2 [DF] | x4 | x4 | x4 | x4 | x4 | x4 | x4 | x4 | x4 | x4 | x4 | %87
 x4 | x4 | x4 | x4 | x4 | x4 | x4 | x4 | x4 | x4 | x4 | x4 | x4 | x4 | x4 | x4 | x4 | x4 | x4 | %106
 x4 | x4 | x4 | x4 | x4 | x4 | x4 | x4 | x4 | x4 | x4 | x4 | x4 | x4 | [D^F]4 | x4 | x4 | x4 | x4 | %125
 x4 | [G,D]4 | x4 | [C^F]4 | x4 | B2 G2 | z [Gc]2 [Gc] | z [FG]2 [EG] | z [CF]2 [CF] | %134
 z [DF]2 [DF] | z [Gc]2 [Gc] | z [FG]2 [EG] | z [CF]2 [CF] | z [EG]2 [EG] | %139
 z"_a tempo" [DF]2 [DF] | z [EG]2 [DG] | z [EG]2 [EG] | z [Ad]2 [Ad] | z [Gc]2 [Gc] | %144
 z [GB]2 [GB] | z [ce]2 [ce] | z [DF]2 [DF] | x4 | x4 | x4 | x4 | z [Bd]2 [Bd] | z [DF]2 [DF] | %153
 x4 | x4 | x4 | x4 | x4 | x4 | x4 | x4 | x4 |] %162

